src/assets/outline/ReceiptEdit.svg

<svg width="24" height="24" viewBox="0 0 24 24"  xmlns="http://www.w3.org/2000/svg">
<path d="M10.54 21.94C10.31 21.94 10.09 21.84 9.94003 21.64L8.93002 20.29C8.72002 20.01 8.44005 19.85 8.14005 19.83C7.83005 19.81 7.54002 19.95 7.30002 20.2C5.85002 21.75 4.75003 21.62 4.22003 21.42C3.68003 21.21 2.77002 20.52 2.77002 18.3V7.04001C2.77002 2.60001 4.05002 1.25 8.24002 1.25H15.79C19.98 1.25 21.26 2.60001 21.26 7.04001V11.3C21.26 11.71 20.92 12.05 20.51 12.05C20.1 12.05 19.76 11.71 19.76 11.3V7.04001C19.76 3.43001 19.13 2.75 15.79 2.75H8.24002C4.90002 2.75 4.27002 3.43001 4.27002 7.04001V18.3C4.27002 19.35 4.53002 19.93 4.77002 20.02C4.95002 20.09 5.44004 19.99 6.20004 19.18C6.75004 18.6 7.47003 18.29 8.22003 18.33C8.96003 18.37 9.66004 18.76 10.13 19.39L11.15 20.74C11.4 21.07 11.33 21.54 11 21.79C10.85 21.9 10.69 21.94 10.54 21.94Z" />
<path d="M16 7.75H8C7.59 7.75 7.25 7.41 7.25 7C7.25 6.59 7.59 6.25 8 6.25H16C16.41 6.25 16.75 6.59 16.75 7C16.75 7.41 16.41 7.75 16 7.75Z" />
<path d="M15 11.75H9C8.59 11.75 8.25 11.41 8.25 11C8.25 10.59 8.59 10.25 9 10.25H15C15.41 10.25 15.75 10.59 15.75 11C15.75 11.41 15.41 11.75 15 11.75Z" />
<path d="M14.8201 21.78C14.4401 21.78 14.0801 21.64 13.8201 21.38C13.5101 21.07 13.3701 20.62 13.4401 20.15L13.6301 18.8C13.6801 18.45 13.8901 18.03 14.1401 17.78L17.68 14.24C18.16 13.76 18.6301 13.51 19.1401 13.46C19.7601 13.4 20.38 13.66 20.96 14.24C21.54 14.82 21.8 15.43 21.74 16.06C21.69 16.56 21.43 17.04 20.96 17.52L17.4201 21.06C17.1701 21.31 16.75 21.52 16.4 21.57L15.05 21.76C14.97 21.77 14.9001 21.78 14.8201 21.78ZM19.31 14.95C19.3 14.95 19.29 14.95 19.28 14.95C19.14 14.96 18.95 15.09 18.74 15.3L15.2001 18.84C15.1701 18.87 15.12 18.97 15.12 19.01L14.9401 20.26L16.1901 20.08C16.2301 20.07 16.33 20.02 16.36 19.99L19.9 16.45C20.11 16.23 20.24 16.05 20.2501 15.91C20.2701 15.71 20.07 15.47 19.9 15.3C19.74 15.14 19.51 14.95 19.31 14.95Z" />
<path d="M19.9201 18.2499C19.8501 18.2499 19.7801 18.2399 19.7201 18.2199C18.4001 17.8499 17.3501 16.7999 16.9801 15.4799C16.8701 15.0799 17.1001 14.6699 17.5001 14.5499C17.9001 14.4399 18.3101 14.6699 18.4201 15.0699C18.6501 15.8899 19.3001 16.5399 20.1201 16.7699C20.5201 16.8799 20.7501 17.2999 20.6401 17.6999C20.5501 18.0299 20.2501 18.2499 19.9201 18.2499Z" />
</svg>

<?xml version="1.0" encoding="UTF-8"?>
<svg width="24" height="24" viewBox="0 0 24 24" xmlns="http://www.w3.org/2000/svg">
 <path d="m10.54 21.94c-0.23 0-0.45-0.1-0.59997-0.3l-1.01-1.35c-0.21-0.28-0.48997-0.44-0.78997-0.46-0.31-0.02-0.60003 0.12-0.84003 0.37-1.45 1.55-2.55 1.42-3.08 1.22-0.54-0.21-1.45-0.9-1.45-3.12v-11.26c0-4.44 1.28-5.79 5.47-5.79h7.55c4.19 0 5.47 1.35 5.47 5.79v4.26c0 0.41-0.34 0.75-0.75 0.75s-0.75-0.34-0.75-0.75v-4.26c0-3.61-0.63-4.29-3.97-4.29h-7.55c-3.34 0-3.97 0.68001-3.97 4.29v11.26c0 1.05 0.26 1.63 0.5 1.72 0.18 0.07 0.67002-0.03 1.43-0.84 0.55-0.58 1.27-0.89 2.02-0.85 0.74 0.04 1.44 0.43 1.91 1.06l1.02 1.35c0.25 0.33 0.18 0.8-0.15 1.05-0.15 0.11-0.31 0.15-0.46 0.15z"/>
 <path d="m16 7.75h-8c-0.41 0-0.75-0.34-0.75-0.75s0.34-0.75 0.75-0.75h8c0.41 0 0.75 0.34 0.75 0.75s-0.34 0.75-0.75 0.75z"/>
 <path d="m15 11.75h-6c-0.41 0-0.75-0.34-0.75-0.75s0.34-0.75 0.75-0.75h6c0.41 0 0.75 0.34 0.75 0.75s-0.34 0.75-0.75 0.75z"/>
 <path d="m14.82 21.78c-0.38 0-0.74-0.14-1-0.4-0.31-0.31-0.45-0.76-0.38-1.23l0.19-1.35c0.05-0.35 0.26-0.77 0.51-1.02l3.5399-3.54c0.48-0.48 0.9501-0.73 1.4601-0.78 0.62-0.06 1.2399 0.2 1.8199 0.78s0.84 1.19 0.78 1.82c-0.05 0.5-0.31 0.98-0.78 1.46l-3.5399 3.54c-0.25 0.25-0.6701 0.46-1.0201 0.51l-1.35 0.19c-0.08 0.01-0.1499 0.02-0.2299 0.02zm4.4899-6.83h-0.03c-0.14 0.01-0.33 0.14-0.54 0.35l-3.5399 3.54c-0.03 0.03-0.0801 0.13-0.0801 0.17l-0.1799 1.25 1.25-0.18c0.04-0.01 0.1399-0.06 0.1699-0.09l3.54-3.54c0.21-0.22 0.34-0.4 0.3501-0.54 0.02-0.2-0.1801-0.44-0.3501-0.61-0.16-0.16-0.39-0.35-0.59-0.35z"/>
 <path d="m19.92 18.25c-0.07 0-0.14-0.01-0.2-0.03-1.32-0.37-2.37-1.42-2.74-2.74-0.11-0.4 0.12-0.81 0.52-0.93 0.4-0.11 0.81 0.12 0.92 0.52 0.23 0.82 0.88 1.47 1.7 1.7 0.4 0.11 0.63 0.53 0.52 0.93-0.09 0.33-0.39 0.55-0.72 0.55z"/>
</svg>
